src/images/icons/area.svg

<?xml version="1.0" encoding="UTF-8" standalone="no"?>
<svg
   xmlns:dc="http://purl.org/dc/elements/1.1/"
   xmlns:cc="http://creativecommons.org/ns#"
   xmlns:rdf="http://www.w3.org/1999/02/22-rdf-syntax-ns#"
   xmlns:svg="http://www.w3.org/2000/svg"
   xmlns="http://www.w3.org/2000/svg"
   xml:space="preserve"
   enable-background="new 0 0 64 64"
   viewBox="0 0 24 24"
   height="24"
   width="24"
   y="0px"
   x="0px"
   id="Forma_1_1_"
   version="1.1"><metadata
     id="metadata12"><rdf:RDF><cc:Work
         rdf:about=""><dc:format>image/svg+xml</dc:format><dc:type
           rdf:resource="http://purl.org/dc/dcmitype/StillImage" /><dc:title></dc:title></cc:Work></rdf:RDF></metadata><defs
     id="defs10" /><g
     style="fill:none;fill-opacity:1;stroke:#000000;stroke-opacity:1"
     transform="matrix(0.34375,0,0,0.34375,1,1)"
     id="Forma_1"><g
       style="fill:none;fill-opacity:1;stroke:#000000;stroke-opacity:1"
       id="g4"><path
         style="fill:#4c4c4c;fill-opacity:1;stroke:none;stroke-opacity:1"
         id="path6"
         d="M 64,16.207 64,0 47.794,0 l 0,7.112 -31.586,0 L 16.208,0 0,0 l 0,16.207 7.112,0 0,31.586 -7.112,0 0,16.207 16.207,0 0,-7.111 31.587,0 0,7.111 16.206,0 0,-16.206 -7.11,0 0,-31.587 7.11,0 z m -62.015,-1.984 0,-12.238 12.237,0 0,12.238 -12.237,0 z m 12.238,47.794 -12.238,0 0,-12.24 12.238,0 0,12.24 z m 33.571,-7.113 -31.586,0 0,-7.11 -7.112,0 0,-31.587 7.112,0 0,-7.112 31.586,0 0,7.112 7.111,0 0,31.587 -7.111,0 0,7.11 z m 14.223,-5.127 0,12.239 -12.24,0 0,-12.239 12.24,0 z m -12.24,-35.555 0,-12.237 12.239,0 0,12.237 -12.239,0 z" /></g></g></svg>

<?xml version="1.0" encoding="utf-8"?>
<!-- Generator: Adobe Illustrator 16.0.0, SVG Export Plug-In . SVG Version: 6.00 Build 0)  -->
<!DOCTYPE svg PUBLIC "-//W3C//DTD SVG 1.1//EN" "http://www.w3.org/Graphics/SVG/1.1/DTD/svg11.dtd">
<svg version="1.1" id="Forma_1_1_" xmlns="http://www.w3.org/2000/svg" xmlns:xlink="http://www.w3.org/1999/xlink" x="0px" y="0px"
	 width="64px" height="64px" viewBox="0 0 64 64" enable-background="new 0 0 64 64" xml:space="preserve">
<g id="Forma_1">
	<g>
		<path d="M64,16.207V0H47.794v7.112H16.208V0H0v16.207h7.112v31.586H0V64h16.207v-7.111h31.587V64H64V47.794h-7.11V16.207H64z
			 M1.985,14.223V1.985h12.237v12.238H1.985z M14.223,62.017H1.985V49.777h12.238V62.017z M47.794,54.904H16.208v-7.11H9.096V16.207
			h7.112V9.095h31.586v7.112h7.111v31.587h-7.111V54.904z M62.017,49.777v12.239H49.777V49.777H62.017z M49.777,14.222V1.985h12.239
			v12.237H49.777z"/>
	</g>
</g>
</svg>
